static/assets/logo-general.svg

<svg height="175" viewBox="0 0 1039 175" width="1039" xmlns="http://www.w3.org/2000/svg" xmlns:xlink="http://www.w3.org/1999/xlink"><linearGradient id="a"><stop offset="0" stop-color="#3023ae"/><stop offset="1" stop-color="#c86dd7"/></linearGradient><linearGradient id="b" x1="0%" x2="101.999998%" xlink:href="#a" y1="0%" y2="100.999999%"/><radialGradient id="c" cx="38.727896%" cy="38.596511%" gradientTransform="matrix(.11464119 .17090327 -.01988511 .98528781 .350556 -.060509)" r="474.819354%" xlink:href="#a"/><g fill="none" fill-rule="evenodd"><path d="m74.176 0 75.824 45.742v85.323l-75.824 43.266-74.176-43.266v-91.085z" fill="url(#b)"/><path d="m211.448 138.296c-4.704024 0-8.975981-.527995-12.816-1.584s-7.295985-2.495991-10.368-4.32-5.735989-4.007987-7.992-6.552-4.103993-5.255986-5.544-8.136l16.416-9.504c2.208011 3.552018 4.823985 6.479988 7.848 8.784s7.031975 3.456 12.024 3.456c4.224021 0 7.559988-.935991 10.008-2.808s3.672-4.247986 3.672-7.128c0-3.456017-1.295987-6.047991-3.888-7.776s-6.191977-3.5999899-10.8-5.616l-5.04-2.16c-3.648018-1.5360077-6.959985-3.2159909-9.936-5.04s-5.519989-3.935988-7.632-6.336-3.743994-5.1359846-4.896-8.208-1.728-6.6719794-1.728-10.8c0-3.7440187.695993-7.2479837 2.088-10.512s3.359987-6.095988 5.904-8.496 5.639982-4.2719933 9.288-5.616 7.727977-2.016 12.24-2.016c6.432032 0 11.975977 1.2239878 16.632 3.672s8.663983 6.5999707 12.024 12.456l-15.696 10.08c-1.728009-3.0720154-3.59999-5.2799933-5.616-6.624s-4.463986-2.016-7.344-2.016c-2.976015 0-5.327991.8159918-7.056 2.448s-2.592 3.6959875-2.592 6.192c0 3.0720154.98399 5.3999921 2.952 6.984s5.111978 3.3359904 9.432 5.256l5.04 2.16c4.320022 1.8240091 8.135983 3.7199902 11.448 5.688s6.095989 4.1759878 8.352 6.624 3.983994 5.2319844 5.184 8.352c1.200006 3.120016 1.8 6.791979 1.8 11.016 0 4.512023-.839992 8.519982-2.52 12.024s-4.007985 6.455988-6.984 8.856-6.50398 4.199994-10.584 5.4-8.519976 1.8-13.32 1.8zm96.192 0c-7.008035 0-13.583969-1.271987-19.728-3.816s-11.471977-6.047978-15.984-10.512-8.087987-9.767969-10.728-15.912-3.96-12.815964-3.96-20.016 1.319987-13.8719693 3.96-20.016 6.215977-11.4479777 10.728-15.912 9.839969-7.9439875 15.984-10.44 12.719965-3.744 19.728-3.744c8.928045 0 16.583968 1.6079839 22.968 4.824s11.783978 8.2799654 16.2 15.192l-15.408 10.944c-2.304012-3.7440187-5.42398-6.815988-9.36-9.216s-8.735972-3.6-14.4-3.6c-4.416022 0-8.447982.8159918-12.096 2.448s-6.767987 3.8639858-9.36 6.696-4.607993 6.1919806-6.048 10.08-2.16 8.135977-2.16 12.744.719993 8.8799803 2.16 12.816c1.440007 3.93602 3.455987 7.343986 6.048 10.224s5.711982 5.135992 9.36 6.768 7.679978 2.448 12.096 2.448c6.336032 0 11.423981-1.343987 15.264-4.032s7.151986-6.143979 9.936-10.368l15.696 10.8c-4.320022 6.624033-9.839966 11.879981-16.56 15.768s-14.831952 5.832-24.336 5.832zm82.368-43.2c8.256041 0 14.255981-1.4399856 18-4.32s5.616-7.7759654 5.616-14.688-1.895981-11.8559851-5.688-14.832-9.767959-4.464-17.928-4.464h-6.336v38.304zm45.792 41.904h-23.328l-16.128-24.768c-1.92001.288001-3.83999.432-5.76.432h-6.912v24.336h-20.16v-97.92h27.072c13.728069 0 24.455961 3.1679683 32.184 9.504s11.592 15.50394 11.592 27.504c0 7.6800384-1.631984 13.9679755-4.896 18.864s-7.91997 8.735986-13.968 11.52zm16.56-97.92h20.16v97.92h-20.16zm67.392 57.888c8.256041 0 14.255981-1.6559834 18-4.968s5.616-8.3279664 5.616-15.048c0-6.8160341-1.895981-11.8799834-5.688-15.192s-9.767959-4.968-17.928-4.968h-6.336v40.176zm-26.496-57.888h27.072c6.816034 0 12.935973.8639914 18.36 2.592s10.007981 4.2239837 13.752 7.488 6.62399 7.2479765 8.64 11.952 3.024 9.9839707 3.024 15.84c0 5.9520298-1.00799 11.2559767-3.024 15.912s-4.895981 8.591984-8.64 11.808-8.327973 5.687991-13.752 7.416-11.543966 2.592-18.36 2.592h-6.912v22.32h-20.16zm107.424 17.712h-27.936v-17.712h76.032v17.712h-27.936v80.208h-20.16zm104.256 81.504c-7.008035 0-13.583969-1.271987-19.728-3.816s-11.471977-6.047978-15.984-10.512-8.087987-9.767969-10.728-15.912-3.96-12.815964-3.96-20.016 1.319987-13.8719693 3.96-20.016 6.215977-11.4479777 10.728-15.912 9.839969-7.9439875 15.984-10.44 12.719965-3.744 19.728-3.744c8.928045 0 16.583968 1.6079839 22.968 4.824s11.783978 8.2799654 16.2 15.192l-15.408 10.944c-2.304012-3.7440187-5.42398-6.815988-9.36-9.216s-8.735972-3.6-14.4-3.6c-4.416022 0-8.447982.8159918-12.096 2.448s-6.767987 3.8639858-9.36 6.696-4.607993 6.1919806-6.048 10.08-2.16 8.135977-2.16 12.744.719993 8.8799803 2.16 12.816c1.440007 3.93602 3.455987 7.343986 6.048 10.224s5.711982 5.135992 9.36 6.768 7.679978 2.448 12.096 2.448c6.336032 0 11.423981-1.343987 15.264-4.032s7.151986-6.143979 9.936-10.368l15.696 10.8c-4.320022 6.624033-9.839966 11.879981-16.56 15.768s-14.831952 5.832-24.336 5.832zm101.808-18c4.416022 0 8.471982-.815992 12.168-2.448s6.863987-3.887986 9.504-6.768 4.679993-6.28798 6.12-10.224c1.440007-3.9360197 2.16-8.207977 2.16-12.816s-.719993-8.8799803-2.16-12.816-3.479987-7.3439856-6.12-10.224-5.807982-5.1359918-9.504-6.768-7.751978-2.448-12.168-2.448c-4.512023 0-8.591982.8159918-12.24 2.448s-6.791987 3.8879856-9.432 6.768-4.679993 6.2879803-6.12 10.224-2.16 8.207977-2.16 12.816.719993 8.8799803 2.16 12.816c1.440007 3.93602 3.479987 7.343986 6.12 10.224s5.783982 5.135992 9.432 6.768 7.727977 2.448 12.24 2.448zm0 18c-7.104036 0-13.727969-1.271987-19.872-3.816s-11.495977-6.047978-16.056-10.512-8.159987-9.767969-10.8-15.912-3.96-12.815964-3.96-20.016 1.319987-13.8719693 3.96-20.016 6.239977-11.4479777 10.8-15.912 9.911969-7.9679873 16.056-10.512 12.767964-3.816 19.872-3.816c7.008035 0 13.607969 1.2719873 19.8 3.816s11.567977 6.0479777 16.128 10.512 8.159987 9.7679693 10.8 15.912 3.96 12.815964 3.96 20.016-1.319987 13.871969-3.96 20.016-6.239977 11.447978-10.8 15.912-9.935969 7.967987-16.128 10.512-12.791965 3.816-19.8 3.816zm96.912-46.8c-1.248006-1.1520058-2.543993-2.4959923-3.888-4.032s-2.591994-2.9759933-3.744-4.32c-1.344007-1.6320082-2.687993-3.3119914-4.032-5.04.192001 2.1120106.431999 4.2239894.72 6.336.192001 1.8240091.359999 3.7679897.504 5.832s.216 3.9599914.216 5.688v41.04h-18.864v-98.784h2.016l49.392 46.368c1.152006 1.1520058 2.399993 2.4959923 3.744 4.032s2.591994 2.9759933 3.744 4.32c1.344007 1.6320082 2.687993 3.3119914 4.032 5.04-.288001-2.1120106-.527999-4.2239894-.72-6.336-.192001-1.8240091-.336-3.7679897-.432-5.832s-.144-3.9599914-.144-5.688v-41.04h18.864v98.784h-2.016zm71.856-52.416h63.072v17.712h-42.912v32.4h39.024v18h-39.024v29.808h-20.16z" fill="url(#c)"/></g></svg>

<svg width="1039px" height="175px" viewBox="0 0 1039 175" version="1.1" xmlns="http://www.w3.org/2000/svg" xmlns:xlink="http://www.w3.org/1999/xlink">
    <defs>
        <linearGradient x1="0%" y1="0%" x2="101.999998%" y2="100.999999%" id="linearGradient-1">
            <stop class="stop-1" stop-color="#3023AE" offset="0%"></stop>
            <stop class="stop-2" stop-color="#C86DD7" offset="100%"></stop>
        </linearGradient>
        <radialGradient cx="38.7278956%" cy="38.5965109%" fx="38.7278956%" fy="38.5965109%" r="474.819354%" gradientTransform="translate(0.387279,0.385965),scale(0.116353,1.000000),rotate(9.840341),translate(-0.387279,-0.385965)" id="radialGradient-2">
            <stop stop-color="#3023AE" offset="0%"></stop>
            <stop stop-color="#C86DD7" offset="100%"></stop>
        </radialGradient>
    </defs>
    <g id="Page-1" stroke="none" stroke-width="1" fill="none" fill-rule="evenodd">
        <g id="Group-2">
            <g id="Group" fill="url(#linearGradient-1)">
                <g id="logo-general">
                    <polygon id="x" points="74.176 0 150 45.742 150 131.065 74.176 174.331 0 131.065 0 39.98"></polygon>
                </g>
            </g>
            <path d="M211.448,138.296 C206.743976,138.296 202.472019,137.768005 198.632,136.712 C194.791981,135.655995 191.336015,134.216009 188.264,132.392 C185.191985,130.567991 182.528011,128.384013 180.272,125.84 C178.015989,123.295987 176.168007,120.584014 174.728,117.704 L191.144,108.2 C193.352011,111.752018 195.967985,114.679988 198.992,116.984 C202.016015,119.288012 206.023975,120.44 211.016,120.44 C215.240021,120.44 218.575988,119.504009 221.024,117.632 C223.472012,115.759991 224.696,113.384014 224.696,110.504 C224.696,107.047983 223.400013,104.456009 220.808,102.728 C218.215987,100.999991 214.616023,99.1280101 210.008,97.112 L204.968,94.952 C201.319982,93.4159923 198.008015,91.7360091 195.032,89.912 C192.055985,88.0879909 189.512011,85.976012 187.4,83.576 C185.287989,81.175988 183.656006,78.4400154 182.504,75.368 C181.351994,72.2959846 180.776,68.6960206 180.776,64.568 C180.776,60.8239813 181.471993,57.3200163 182.864,54.056 C184.256007,50.7919837 186.223987,47.960012 188.768,45.56 C191.312013,43.159988 194.407982,41.2880067 198.056,39.944 C201.704018,38.5999933 205.783977,37.928 210.296,37.928 C216.728032,37.928 222.271977,39.1519878 226.928,41.6 C231.584023,44.0480122 235.591983,48.1999707 238.952,54.056 L223.256,64.136 C221.527991,61.0639846 219.65601,58.8560067 217.64,57.512 C215.62399,56.1679933 213.176014,55.496 210.296,55.496 C207.319985,55.496 204.968009,56.3119918 203.24,57.944 C201.511991,59.5760082 200.648,61.6399875 200.648,64.136 C200.648,67.2080154 201.63199,69.5359921 203.6,71.12 C205.56801,72.7040079 208.711978,74.4559904 213.032,76.376 L218.072,78.536 C222.392022,80.3600091 226.207983,82.2559902 229.52,84.224 C232.832017,86.1920098 235.615989,88.3999878 237.872,90.848 C240.128011,93.2960122 241.855994,96.0799844 243.056,99.2 C244.256006,102.320016 244.856,105.991979 244.856,110.216 C244.856,114.728023 244.016008,118.735982 242.336,122.24 C240.655992,125.744018 238.328015,128.695988 235.352,131.096 C232.375985,133.496012 228.84802,135.295994 224.768,136.496 C220.68798,137.696006 216.248024,138.296 211.448,138.296 Z M307.64,138.296 C300.631965,138.296 294.056031,137.024013 287.912,134.48 C281.767969,131.935987 276.440023,128.432022 271.928,123.968 C267.415977,119.503978 263.840013,114.200031 261.2,108.056 C258.559987,101.911969 257.24,95.240036 257.24,88.04 C257.24,80.839964 258.559987,74.1680307 261.2,68.024 C263.840013,61.8799693 267.415977,56.5760223 271.928,52.112 C276.440023,47.6479777 281.767969,44.1680125 287.912,41.672 C294.056031,39.1759875 300.631965,37.928 307.64,37.928 C316.568045,37.928 324.223968,39.5359839 330.608,42.752 C336.992032,45.9680161 342.391978,51.0319654 346.808,57.944 L331.4,68.888 C329.095988,65.1439813 325.97602,62.072012 322.04,59.672 C318.10398,57.271988 313.304028,56.072 307.64,56.072 C303.223978,56.072 299.192018,56.8879918 295.544,58.52 C291.895982,60.1520082 288.776013,62.3839858 286.184,65.216 C283.591987,68.0480142 281.576007,71.4079806 280.136,75.296 C278.695993,79.1840194 277.976,83.431977 277.976,88.04 C277.976,92.648023 278.695993,96.9199803 280.136,100.856 C281.576007,104.79202 283.591987,108.199986 286.184,111.08 C288.776013,113.960014 291.895982,116.215992 295.544,117.848 C299.192018,119.480008 303.223978,120.296 307.64,120.296 C313.976032,120.296 319.063981,118.952013 322.904,116.264 C326.744019,113.575987 330.055986,110.120021 332.84,105.896 L348.536,116.696 C344.215978,123.320033 338.696034,128.575981 331.976,132.464 C325.255966,136.352019 317.144048,138.296 307.64,138.296 Z M390.008,95.096 C398.264041,95.096 404.263981,93.6560144 408.008,90.776 C411.752019,87.8959856 413.624,83.0000346 413.624,76.088 C413.624,69.1759654 411.728019,64.2320149 407.936,61.256 C404.143981,58.2799851 398.168041,56.792 390.008,56.792 L383.672,56.792 L383.672,95.096 L390.008,95.096 Z M435.8,137 L412.472,137 L396.344,112.232 C394.42399,112.520001 392.50401,112.664 390.584,112.664 L383.672,112.664 L383.672,137 L363.512,137 L363.512,39.08 L390.584,39.08 C404.312069,39.08 415.039961,42.2479683 422.768,48.584 C430.496039,54.9200317 434.36,64.08794 434.36,76.088 C434.36,83.7680384 432.728016,90.0559755 429.464,94.952 C426.199984,99.8480245 421.54403,103.687986 415.496,106.472 L435.8,137 Z M452.36,39.08 L472.52,39.08 L472.52,137 L452.36,137 L452.36,39.08 Z M519.752,96.968 C528.008041,96.968 534.007981,95.3120166 537.752,92 C541.496019,88.6879834 543.368,83.6720336 543.368,76.952 C543.368,70.1359659 541.472019,65.0720166 537.68,61.76 C533.887981,58.4479834 527.912041,56.792 519.752,56.792 L513.416,56.792 L513.416,96.968 L519.752,96.968 Z M493.256,39.08 L520.328,39.08 C527.144034,39.08 533.263973,39.9439914 538.688,41.672 C544.112027,43.4000086 548.695981,45.8959837 552.44,49.16 C556.184019,52.4240163 559.06399,56.4079765 561.08,61.112 C563.09601,65.8160235 564.104,71.0959707 564.104,76.952 C564.104,82.9040298 563.09601,88.2079767 561.08,92.864 C559.06399,97.5200233 556.184019,101.455984 552.44,104.672 C548.695981,107.888016 544.112027,110.359991 538.688,112.088 C533.263973,113.816009 527.144034,114.68 520.328,114.68 L513.416,114.68 L513.416,137 L493.256,137 L493.256,39.08 Z M600.68,56.792 L572.744,56.792 L572.744,39.08 L648.776,39.08 L648.776,56.792 L620.84,56.792 L620.84,137 L600.68,137 L600.68,56.792 Z M704.936,138.296 C697.927965,138.296 691.352031,137.024013 685.208,134.48 C679.063969,131.935987 673.736023,128.432022 669.224,123.968 C664.711977,119.503978 661.136013,114.200031 658.496,108.056 C655.855987,101.911969 654.536,95.240036 654.536,88.04 C654.536,80.839964 655.855987,74.1680307 658.496,68.024 C661.136013,61.8799693 664.711977,56.5760223 669.224,52.112 C673.736023,47.6479777 679.063969,44.1680125 685.208,41.672 C691.352031,39.1759875 697.927965,37.928 704.936,37.928 C713.864045,37.928 721.519968,39.5359839 727.904,42.752 C734.288032,45.9680161 739.687978,51.0319654 744.104,57.944 L728.696,68.888 C726.391988,65.1439813 723.27202,62.072012 719.336,59.672 C715.39998,57.271988 710.600028,56.072 704.936,56.072 C700.519978,56.072 696.488018,56.8879918 692.84,58.52 C689.191982,60.1520082 686.072013,62.3839858 683.48,65.216 C680.887987,68.0480142 678.872007,71.4079806 677.432,75.296 C675.991993,79.1840194 675.272,83.431977 675.272,88.04 C675.272,92.648023 675.991993,96.9199803 677.432,100.856 C678.872007,104.79202 680.887987,108.199986 683.48,111.08 C686.072013,113.960014 689.191982,116.215992 692.84,117.848 C696.488018,119.480008 700.519978,120.296 704.936,120.296 C711.272032,120.296 716.359981,118.952013 720.2,116.264 C724.040019,113.575987 727.351986,110.120021 730.136,105.896 L745.832,116.696 C741.511978,123.320033 735.992034,128.575981 729.272,132.464 C722.551966,136.352019 714.440048,138.296 704.936,138.296 Z M806.744,120.296 C811.160022,120.296 815.215982,119.480008 818.912,117.848 C822.608018,116.215992 825.775987,113.960014 828.416,111.08 C831.056013,108.199986 833.095993,104.79202 834.536,100.856 C835.976007,96.9199803 836.696,92.648023 836.696,88.04 C836.696,83.431977 835.976007,79.1600197 834.536,75.224 C833.095993,71.2879803 831.056013,67.8800144 828.416,65 C825.775987,62.1199856 822.608018,59.8640082 818.912,58.232 C815.215982,56.5999918 811.160022,55.784 806.744,55.784 C802.231977,55.784 798.152018,56.5999918 794.504,58.232 C790.855982,59.8640082 787.712013,62.1199856 785.072,65 C782.431987,67.8800144 780.392007,71.2879803 778.952,75.224 C777.511993,79.1600197 776.792,83.431977 776.792,88.04 C776.792,92.648023 777.511993,96.9199803 778.952,100.856 C780.392007,104.79202 782.431987,108.199986 785.072,111.08 C787.712013,113.960014 790.855982,116.215992 794.504,117.848 C798.152018,119.480008 802.231977,120.296 806.744,120.296 Z M806.744,138.296 C799.639964,138.296 793.016031,137.024013 786.872,134.48 C780.727969,131.935987 775.376023,128.432022 770.816,123.968 C766.255977,119.503978 762.656013,114.200031 760.016,108.056 C757.375987,101.911969 756.056,95.240036 756.056,88.04 C756.056,80.839964 757.375987,74.1680307 760.016,68.024 C762.656013,61.8799693 766.255977,56.5760223 770.816,52.112 C775.376023,47.6479777 780.727969,44.1440127 786.872,41.6 C793.016031,39.0559873 799.639964,37.784 806.744,37.784 C813.752035,37.784 820.351969,39.0559873 826.544,41.6 C832.736031,44.1440127 838.111977,47.6479777 842.672,52.112 C847.232023,56.5760223 850.831987,61.8799693 853.472,68.024 C856.112013,74.1680307 857.432,80.839964 857.432,88.04 C857.432,95.240036 856.112013,101.911969 853.472,108.056 C850.831987,114.200031 847.232023,119.503978 842.672,123.968 C838.111977,128.432022 832.736031,131.935987 826.544,134.48 C820.351969,137.024013 813.752035,138.296 806.744,138.296 Z M903.656,91.496 C902.407994,90.3439942 901.112007,89.0000077 899.768,87.464 C898.423993,85.9279923 897.176006,84.4880067 896.024,83.144 C894.679993,81.5119918 893.336007,79.8320086 891.992,78.104 C892.184001,80.2160106 892.423999,82.3279894 892.712,84.44 C892.904001,86.2640091 893.071999,88.2079897 893.216,90.272 C893.360001,92.3360103 893.432,94.2319914 893.432,95.96 L893.432,137 L874.568,137 L874.568,38.216 L876.584,38.216 L925.976,84.584 C927.128006,85.7360058 928.375993,87.0799923 929.72,88.616 C931.064007,90.1520077 932.311994,91.5919933 933.464,92.936 C934.808007,94.5680082 936.151993,96.2479914 937.496,97.976 C937.207999,95.8639894 936.968001,93.7520106 936.776,91.64 C936.583999,89.8159909 936.44,87.8720103 936.344,85.808 C936.248,83.7439897 936.2,81.8480086 936.2,80.12 L936.2,39.08 L955.064,39.08 L955.064,137.864 L953.048,137.864 L903.656,91.496 Z M975.512,39.08 L1038.584,39.08 L1038.584,56.792 L995.672,56.792 L995.672,89.192 L1034.696,89.192 L1034.696,107.192 L995.672,107.192 L995.672,137 L975.512,137 L975.512,39.08 Z" id="SCRIPTCONF" fill="url(#radialGradient-2)"></path>
        </g>
    </g>
</svg>
